static/img/kroki/d4d56be9e2d4334ae96bcdea51e3094d.svg

<?xml version="1.0" encoding="us-ascii" standalone="no"?><svg xmlns="http://www.w3.org/2000/svg" xmlns:xlink="http://www.w3.org/1999/xlink" contentStyleType="text/css" height="252px" preserveAspectRatio="none" style="width:511px;height:252px;" version="1.1" viewBox="0 0 511 252" width="511px" zoomAndPan="magnify"><defs/><g><!--class azure_disk--><g id="elem_azure_disk"><rect codeLine="22" fill="#3D176E" height="39.7891" id="azure_disk" rx="2.5" ry="2.5" style="stroke:#000D19;stroke-width:0.5;" width="130" x="199" y="106.79"/><ellipse cx="214" cy="126.6845" fill="#ADD1B2" rx="11" ry="11" style="stroke:#181818;stroke-width:1.0;"/><path d="M216.9688,132.3252 Q216.3906,132.622 215.75,132.7627 Q215.1094,132.9189 214.4063,132.9189 Q211.9063,132.9189 210.5781,131.2783 Q209.2656,129.622 209.2656,126.497 Q209.2656,123.372 210.5781,121.7158 Q211.9063,120.0595 214.4063,120.0595 Q215.1094,120.0595 215.75,120.2158 Q216.4063,120.372 216.9688,120.6689 L216.9688,123.3877 Q216.3438,122.8095 215.75,122.5439 Q215.1563,122.2627 214.5313,122.2627 Q213.1875,122.2627 212.5,123.3408 Q211.8125,124.4033 211.8125,126.497 Q211.8125,128.5908 212.5,129.6689 Q213.1875,130.7314 214.5313,130.7314 Q215.1563,130.7314 215.75,130.4658 Q216.3438,130.1845 216.9688,129.6064 L216.9688,132.3252 Z " fill="#000000"/><text fill="#D9B8FF" font-family="Helvetica" font-size="17" lengthAdjust="spacing" textLength="88" x="233" y="132.5698">azure_disk</text></g><!--class azure_disk_access--><g id="elem_azure_disk_access"><rect codeLine="24" fill="#3D176E" height="39.7891" id="azure_disk_access" rx="2.5" ry="2.5" style="stroke:#000D19;stroke-width:0.5;" width="191" x="45.5" y="7"/><ellipse cx="60.5" cy="26.8945" fill="#ADD1B2" rx="11" ry="11" style="stroke:#181818;stroke-width:1.0;"/><path d="M63.4688,32.5352 Q62.8906,32.832 62.25,32.9727 Q61.6094,33.1289 60.9063,33.1289 Q58.4063,33.1289 57.0781,31.4883 Q55.7656,29.832 55.7656,26.707 Q55.7656,23.582 57.0781,21.9258 Q58.4063,20.2695 60.9063,20.2695 Q61.6094,20.2695 62.25,20.4258 Q62.9063,20.582 63.4688,20.8789 L63.4688,23.5977 Q62.8438,23.0195 62.25,22.7539 Q61.6563,22.4727 61.0313,22.4727 Q59.6875,22.4727 59,23.5508 Q58.3125,24.6133 58.3125,26.707 Q58.3125,28.8008 59,29.8789 Q59.6875,30.9414 61.0313,30.9414 Q61.6563,30.9414 62.25,30.6758 Q62.8438,30.3945 63.4688,29.8164 L63.4688,32.5352 Z " fill="#000000"/><text fill="#D9B8FF" font-family="Helvetica" font-size="17" lengthAdjust="spacing" textLength="149" x="79.5" y="32.7798">azure_disk_access</text></g><!--class azure_disk_encryption_set--><g id="elem_azure_disk_encryption_set"><rect codeLine="26" fill="#3D176E" height="39.7891" id="azure_disk_encryption_set" rx="2.5" ry="2.5" style="stroke:#000D19;stroke-width:0.5;" width="262" x="7" y="206.58"/><ellipse cx="22" cy="226.4745" fill="#ADD1B2" rx="11" ry="11" style="stroke:#181818;stroke-width:1.0;"/><path d="M24.9688,232.1152 Q24.3906,232.412 23.75,232.5527 Q23.1094,232.7089 22.4063,232.7089 Q19.9063,232.7089 18.5781,231.0683 Q17.2656,229.412 17.2656,226.287 Q17.2656,223.162 18.5781,221.5058 Q19.9063,219.8495 22.4063,219.8495 Q23.1094,219.8495 23.75,220.0058 Q24.4063,220.162 24.9688,220.4589 L24.9688,223.1777 Q24.3438,222.5995 23.75,222.3339 Q23.1563,222.0527 22.5313,222.0527 Q21.1875,222.0527 20.5,223.1308 Q19.8125,224.1933 19.8125,226.287 Q19.8125,228.3808 20.5,229.4589 Q21.1875,230.5214 22.5313,230.5214 Q23.1563,230.5214 23.75,230.2558 Q24.3438,229.9745 24.9688,229.3964 L24.9688,232.1152 Z " fill="#000000"/><text fill="#D9B8FF" font-family="Helvetica" font-size="17" lengthAdjust="spacing" textLength="220" x="41" y="232.3598">azure_disk_encryption_set</text></g><!--class azure_snapshot--><g id="elem_azure_snapshot"><rect codeLine="28" fill="#3D176E" height="39.7891" id="azure_snapshot" rx="2.5" ry="2.5" style="stroke:#000D19;stroke-width:0.5;" width="172" x="304" y="206.58"/><ellipse cx="319" cy="226.4745" fill="#ADD1B2" rx="11" ry="11" style="stroke:#181818;stroke-width:1.0;"/><path d="M321.9688,232.1152 Q321.3906,232.412 320.75,232.5527 Q320.1094,232.7089 319.4063,232.7089 Q316.9063,232.7089 315.5781,231.0683 Q314.2656,229.412 314.2656,226.287 Q314.2656,223.162 315.5781,221.5058 Q316.9063,219.8495 319.4063,219.8495 Q320.1094,219.8495 320.75,220.0058 Q321.4063,220.162 321.9688,220.4589 L321.9688,223.1777 Q321.3438,222.5995 320.75,222.3339 Q320.1563,222.0527 319.5313,222.0527 Q318.1875,222.0527 317.5,223.1308 Q316.8125,224.1933 316.8125,226.287 Q316.8125,228.3808 317.5,229.4589 Q318.1875,230.5214 319.5313,230.5214 Q320.1563,230.5214 320.75,230.2558 Q321.3438,229.9745 321.9688,229.3964 L321.9688,232.1152 Z " fill="#000000"/><text fill="#D9B8FF" font-family="Helvetica" font-size="17" lengthAdjust="spacing" textLength="130" x="338" y="232.3598">azure_snapshot</text></g><!--class azure_virtual_machine--><g id="elem_azure_virtual_machine"><rect codeLine="30" fill="#3D176E" height="39.7891" id="azure_virtual_machine" rx="2.5" ry="2.5" style="stroke:#000D19;stroke-width:0.5;" width="233" x="271.5" y="7"/><ellipse cx="286.5" cy="26.8945" fill="#ADD1B2" rx="11" ry="11" style="stroke:#181818;stroke-width:1.0;"/><path d="M289.4688,32.5352 Q288.8906,32.832 288.25,32.9727 Q287.6094,33.1289 286.9063,33.1289 Q284.4063,33.1289 283.0781,31.4883 Q281.7656,29.832 281.7656,26.707 Q281.7656,23.582 283.0781,21.9258 Q284.4063,20.2695 286.9063,20.2695 Q287.6094,20.2695 288.25,20.4258 Q288.9063,20.582 289.4688,20.8789 L289.4688,23.5977 Q288.8438,23.0195 288.25,22.7539 Q287.6563,22.4727 287.0313,22.4727 Q285.6875,22.4727 285,23.5508 Q284.3125,24.6133 284.3125,26.707 Q284.3125,28.8008 285,29.8789 Q285.6875,30.9414 287.0313,30.9414 Q287.6563,30.9414 288.25,30.6758 Q288.8438,30.3945 289.4688,29.8164 L289.4688,32.5352 Z " fill="#000000"/><text fill="#D9B8FF" font-family="Helvetica" font-size="17" lengthAdjust="spacing" textLength="191" x="305.5" y="32.7798">azure_virtual_machine</text></g><!--link azure_disk to azure_disk_encryption_set--><g id="link_azure_disk_azure_disk_encryption_set"><path codeLine="32" d="M239.11,147.01 C217.02,164.15 189.6596,185.3808 167.5796,202.5208 " fill="none" id="azure_disk-to-azure_disk_encryption_set" style="stroke:#1A83AF;stroke-width:2.0;"/><polygon fill="#1A83AF" points="162.84,206.2,172.4022,203.8409,166.7896,203.134,167.4966,197.5215,162.84,206.2" style="stroke:#1A83AF;stroke-width:2.0;"/></g><!--link azure_disk to azure_snapshot--><g id="link_azure_disk_azure_snapshot"><path codeLine="33" d="M288.89,147.01 C310.98,164.15 338.3404,185.3808 360.4204,202.5208 " fill="none" id="azure_disk-to-azure_snapshot" style="stroke:#1A83AF;stroke-width:2.0;"/><polygon fill="#1A83AF" points="365.16,206.2,360.5034,197.5215,361.2104,203.134,355.5978,203.8409,365.16,206.2" style="stroke:#1A83AF;stroke-width:2.0;"/></g><!--link azure_disk_access to azure_disk--><g id="link_azure_disk_access_azure_disk"><path codeLine="34" d="M165.3,47.22 C186.86,64.36 213.5042,85.5351 235.0542,102.6751 " fill="none" id="azure_disk_access-to-azure_disk" style="stroke:#1A83AF;stroke-width:2.0;"/><polygon fill="#1A83AF" points="239.75,106.41,235.1962,97.6771,235.8368,103.2976,230.2164,103.9382,239.75,106.41" style="stroke:#1A83AF;stroke-width:2.0;"/></g><!--link azure_virtual_machine to azure_disk--><g id="link_azure_virtual_machine_azure_disk"><path codeLine="35" d="M363.5,47.22 C341.76,64.36 314.8801,85.5531 293.1601,102.6931 " fill="none" id="azure_virtual_machine-to-azure_disk" style="stroke:#1A83AF;stroke-width:2.0;"/><polygon fill="#1A83AF" points="288.45,106.41,297.993,103.9747,292.3751,103.3126,293.0372,97.6946,288.45,106.41" style="stroke:#1A83AF;stroke-width:2.0;"/></g><!--SRC=[XP91Qy9048Nl-HKBdWLJQTLB8HMalKYflPKInjs9MPBiXjc9egN_lOssPPirUfttxRptXisrGe5LpNjHORL6Sf4hjAc1e189aTtDRMb93B8Cil6aAowiuQl04YeKZrXkaRM4Bl6QQraOT4xSUD83o693jZ7gj9u9ZFkMqB17pKjmBc4clMuOlJ1gjfvcMPViBXsCLJovmm2pf91-aD5efE9P5xbgTR7t7x7I1nInVxIbPGnY1XP7wcBAbl121aL_zTwCpw2KDXjnwyrUJfd88FsRht9GTjVI6PJEjt6CX9RtDSw3LZYRgcno5dxgWsLxEG67XZ1LsXNY8_eCXYb8sVwdineQIVkQjJMfGmuOPw1skGs5hIPke4mhaBasUDIz7CEtGPnCnydYVNZVRtVbnQzv57RfsH-T3zT3Vm40]--></g></svg>

<svg xmlns="http://www.w3.org/2000/svg" width="511" height="252" viewBox="0 0 511 252"><rect width="130" height="39.789" x="199" y="106.79" fill="#3D176E" rx="2.5" ry="2.5" style="stroke:#000d19;stroke-width:.5"/><circle cx="214" cy="126.684" r="11" fill="#ADD1B2" style="stroke:#181818;stroke-width:1"/><path d="M216.969 132.325q-.578.297-1.219.438-.64.156-1.344.156-2.5 0-3.828-1.64-1.312-1.657-1.312-4.782t1.312-4.781q1.328-1.656 3.828-1.656.703 0 1.344.156.656.156 1.219.453v2.719q-.625-.579-1.219-.844-.594-.281-1.219-.281-1.344 0-2.031 1.078-.687 1.062-.687 3.156t.687 3.172q.688 1.062 2.031 1.062.625 0 1.219-.265.594-.281 1.219-.86z"/><text x="233" y="132.57" fill="#D9B8FF" font-family="Helvetica" font-size="17" textLength="88">azure_disk</text><rect width="191" height="39.789" x="45.5" y="7" fill="#3D176E" rx="2.5" ry="2.5" style="stroke:#000d19;stroke-width:.5"/><circle cx="60.5" cy="26.895" r="11" fill="#ADD1B2" style="stroke:#181818;stroke-width:1"/><path d="M63.469 32.535q-.578.297-1.219.438-.64.156-1.344.156-2.5 0-3.828-1.64-1.312-1.657-1.312-4.782t1.312-4.781q1.328-1.656 3.828-1.656.703 0 1.344.156.656.156 1.219.453v2.719q-.625-.578-1.219-.844-.594-.281-1.219-.281-1.343 0-2.031 1.078-.687 1.062-.687 3.156T59 29.879q.688 1.062 2.031 1.062.625 0 1.219-.265.594-.281 1.219-.86z"/><text x="79.5" y="32.78" fill="#D9B8FF" font-family="Helvetica" font-size="17" textLength="149">azure_disk_access</text><rect width="262" height="39.789" x="7" y="206.58" fill="#3D176E" rx="2.5" ry="2.5" style="stroke:#000d19;stroke-width:.5"/><circle cx="22" cy="226.475" r="11" fill="#ADD1B2" style="stroke:#181818;stroke-width:1"/><path d="M24.969 232.115q-.578.297-1.219.438-.64.156-1.344.156-2.5 0-3.828-1.64-1.312-1.657-1.312-4.782t1.312-4.781q1.328-1.656 3.828-1.656.703 0 1.344.156.656.156 1.219.453v2.719q-.625-.578-1.219-.844-.594-.281-1.219-.281-1.343 0-2.031 1.078-.687 1.062-.687 3.156t.687 3.172q.688 1.062 2.031 1.062.625 0 1.219-.265.594-.281 1.219-.86z"/><text x="41" y="232.36" fill="#D9B8FF" font-family="Helvetica" font-size="17" textLength="220">azure_disk_encryption_set</text><rect width="172" height="39.789" x="304" y="206.58" fill="#3D176E" rx="2.5" ry="2.5" style="stroke:#000d19;stroke-width:.5"/><circle cx="319" cy="226.475" r="11" fill="#ADD1B2" style="stroke:#181818;stroke-width:1"/><path d="M321.969 232.115q-.578.297-1.219.438-.64.156-1.344.156-2.5 0-3.828-1.64-1.312-1.657-1.312-4.782t1.312-4.781q1.328-1.656 3.828-1.656.703 0 1.344.156.656.156 1.219.453v2.719q-.625-.578-1.219-.844-.594-.281-1.219-.281-1.344 0-2.031 1.078-.687 1.062-.687 3.156t.687 3.172q.688 1.062 2.031 1.062.625 0 1.219-.265.594-.281 1.219-.86z"/><text x="338" y="232.36" fill="#D9B8FF" font-family="Helvetica" font-size="17" textLength="130">azure_snapshot</text><rect width="233" height="39.789" x="271.5" y="7" fill="#3D176E" rx="2.5" ry="2.5" style="stroke:#000d19;stroke-width:.5"/><circle cx="286.5" cy="26.895" r="11" fill="#ADD1B2" style="stroke:#181818;stroke-width:1"/><path d="M289.469 32.535q-.578.297-1.219.438-.64.156-1.344.156-2.5 0-3.828-1.64-1.312-1.657-1.312-4.782t1.312-4.781q1.328-1.656 3.828-1.656.703 0 1.344.156.656.156 1.219.453v2.719q-.625-.578-1.219-.844-.594-.281-1.219-.281-1.344 0-2.031 1.078-.687 1.062-.687 3.156t.687 3.172q.688 1.062 2.031 1.062.625 0 1.219-.265.594-.281 1.219-.86z"/><text x="305.5" y="32.78" fill="#D9B8FF" font-family="Helvetica" font-size="17" textLength="191">azure_virtual_machine</text><path fill="none" d="M239.11 147.01c-22.09 17.14-49.45 38.37-71.53 55.51" style="stroke:#1a83af;stroke-width:2"/><path fill="#1A83AF" d="m162.84 206.2 9.562-2.36-5.612-.706.707-5.612z" style="stroke:#1a83af;stroke-width:2"/><path fill="none" d="M288.89 147.01c22.09 17.14 49.45 38.37 71.53 55.51" style="stroke:#1a83af;stroke-width:2"/><path fill="#1A83AF" d="m365.16 206.2-4.657-8.678.707 5.612-5.612.707z" style="stroke:#1a83af;stroke-width:2"/><path fill="none" d="M165.3 47.22c21.56 17.14 48.204 38.315 69.754 55.455" style="stroke:#1a83af;stroke-width:2"/><path fill="#1A83AF" d="m239.75 106.41-4.554-8.733.64 5.62-5.62.641z" style="stroke:#1a83af;stroke-width:2"/><path fill="none" d="M363.5 47.22c-21.74 17.14-48.62 38.333-70.34 55.473" style="stroke:#1a83af;stroke-width:2"/><path fill="#1A83AF" d="m288.45 106.41 9.543-2.435-5.618-.662.662-5.618z" style="stroke:#1a83af;stroke-width:2"/></svg>
